X:1
T:Title
%%score { ( 1 4 ) | ( 2 3 ) }
L:1/8
M:4/4
K:Eb
V:1 treble nm="Grand Piano"
V:4 treble 
V:2 bass 
V:3 bass 
V:1
 z4 z2[Q:1/4=108] [CEc]2 | [Cc]2- [C-Fc-]2 [C-Gc-]2 [CAc]2 | A2 G2 G4 | _d2- [Fd-][Ad] e2 [Fd]2 | %4
[M:3/4] [Cc]4 z2 |[M:1/4] [E_d]2 |[M:4/4] E2 F2 G2 A2 | [C=Ec=e]2 B2 f4 | %8
 [Ee]2- [E-Be-][EBe] [ce]2 [Fdf]2 | e6 z2 | e2 cB A2 F2 | G2 [Gf]2 [Ge]4 | G2 GG G4 | %13
 F2 [CE][=B,D] [CE]4 | [Ae]2 [B=e][Be] [Af]2 [Ac]2 | _d6 z2 | _d2 z2 z4 |[M:3/4] [A,CEA]6 |] %18
V:2
 z4 z2 E,2 | E,2 F,2 G,2 A,2 | A,2 G,2 G,4 | B,2 z2 z4 |[M:3/4] [A,,A,]2 z2 [B,,G,]2 | %5
[M:1/4] [E,G,_D]2 |[M:4/4] A,,2- [A,,-F,]2 [A,,-G,]2 [A,,A,]2 | z2 B,2 [F,,A,FA]4 | %8
 G,2 B,B, [A,CE]2 [A,B,D]2 | [G,B,]4 z4 | [A,CA]2 [A,EA][A,_DE] [A,CE]2 [A,CE]2 | _D2 z2 z4 | %12
 [E,B,_D]2 [E,B,D][E,B,D] [E,B,D]4 | [A,_D]2 [A,,A,][A,,F,] [A,,A,]4 | %14
 [A,C]2 [_G,C][G,C] [F,C]2[K:treble] [F,F]2 | [FB]2 z2 z4 | [E,B,]2 E,E, E,2 E,2 |[M:3/4] A,,6 |] %18
V:3
 z4 z2 A,,2- | A,,8 | B,,8 | [E,_D]2- [E,-F,D-][E,-A,D] [E,G,EG]2 [E,G,D]2 |[M:3/4] x6 | %5
[M:1/4] x2 |[M:4/4] E,2 z2 z4 | G,,4 z4 | B,,8 | [E,E]4- [E,G,E]2 z2 | x8 | %11
 [B,E]2- [E,B,-_DE-]2 [E,-B,D-E]2 [E,D]2 | x8 | x8 | x6[K:treble] x2 | B,4- [B,_D]2 z2 | x8 | %17
[M:3/4] x6 |] %18
V:4
 x8 | E2 z2 z4 | [_D_d]8 | B2 z2 z4 |[M:3/4] E2- [=A,,_G,E-]2 [_DE_d]2 |[M:1/4] x2 |[M:4/4] [Cc]8 | %7
 x8 | G2 z2 z4 | z4 _D2 z2 | x8 | x8 | x8 | x8 | x8 | z2 F2 B2 A2 | %16
 G2- [FG-_d][FG-d] [EGc]2 [_DEB]2 |[M:3/4] x6 |] %18

